assets/icons/24px/outline/night-24px.svg

<svg width="24" height="24" viewBox="0 0 24 24" fill="none" xmlns="http://www.w3.org/2000/svg">
<path d="M14.48 15.4555L13.7468 14.7754L13.7468 14.7754L14.48 15.4555ZM8.54452 9.52L7.86448 8.78683L7.86448 8.78683L8.54452 9.52ZM8.4 9.02963L8.3012 8.03452L8.3012 8.03452L8.4 9.02963ZM9.03626 9.1278L9.59975 9.95393L9.03626 9.1278ZM14.8722 14.9637L15.6983 15.5272L14.8722 14.9637ZM14.0461 14.4003C13.9557 14.5327 13.8556 14.6581 13.7468 14.7754L15.2132 16.1355C15.3894 15.9455 15.5517 15.7422 15.6983 15.5272L14.0461 14.4003ZM13.7468 14.7754C13.1611 15.407 12.3272 15.8 11.4 15.8V17.8C12.9066 17.8 14.2648 17.158 15.2132 16.1355L13.7468 14.7754ZM11.4 15.8C9.63269 15.8 8.2 14.3673 8.2 12.6H6.2C6.2 15.4719 8.52812 17.8 11.4 17.8V15.8ZM8.2 12.6C8.2 11.6728 8.59304 10.8389 9.22457 10.2532L7.86448 8.78683C6.84203 9.73518 6.2 11.0934 6.2 12.6H8.2ZM9.22457 10.2532C9.34188 10.1444 9.4673 10.0443 9.59975 9.95393L8.47278 8.30167C8.25781 8.4483 8.05451 8.61057 7.86448 8.78683L9.22457 10.2532ZM8.4988 10.0247C8.66336 10.0084 8.83055 10 9 10V8C8.76445 8 8.53132 8.01167 8.3012 8.03452L8.4988 10.0247ZM4 15C4 12.4079 5.97321 10.2755 8.4988 10.0247L8.3012 8.03452C4.76281 8.38583 2 11.3697 2 15H4ZM9 20C6.23858 20 4 17.7614 4 15H2C2 18.866 5.13401 22 9 22V20ZM14 15C14 17.7614 11.7614 20 9 20V22C12.866 22 16 18.866 16 15H14ZM9.59975 9.95393C10.0245 9.66422 10.1362 9.16888 10.0277 8.78048C9.9169 8.38376 9.54439 8 9 8V10C8.52349 10 8.19715 9.66101 8.10149 9.31863C8.00816 8.98457 8.10411 8.55314 8.47278 8.30167L9.59975 9.95393ZM15.6983 15.5272C15.4469 15.8959 15.0154 15.9918 14.6814 15.8985C14.339 15.8029 14 15.4765 14 15H16C16 14.4556 15.6162 14.0831 15.2195 13.9723C14.8311 13.8638 14.3358 13.9755 14.0461 14.4003L15.6983 15.5272Z" fill="white"/>
<path d="M19 7.5V11.5M17 9.5L21 9.5" stroke="white" stroke-width="2" stroke-linecap="round" stroke-linejoin="round"/>
<path d="M12 3V4.5M12 4.5V6M12 4.5L10.5 4.5M12 4.5L13.5 4.5" stroke="white" stroke-width="2" stroke-linecap="round" stroke-linejoin="round"/>
</svg>

<svg width="24" height="24" fill="none" xmlns="http://www.w3.org/2000/svg"><path d="M14.48 15.456l-.733-.68.733.68zM8.545 9.52l-.68-.733.68.733zM8.4 9.03l-.099-.995.099.995zm.636.098l.564.826-.564-.826zm5.836 5.836l.826.563-.826-.563zm-.826-.564a3.23 3.23 0 0 1-.3.375l1.467 1.36c.176-.19.339-.393.485-.608L14.046 14.4zm-.3.375A3.188 3.188 0 0 1 11.4 15.8v2a5.189 5.189 0 0 0 3.813-1.665l-1.466-1.36zM11.4 15.8a3.2 3.2 0 0 1-3.2-3.2h-2a5.2 5.2 0 0 0 5.2 5.2v-2zm-3.2-3.2c0-.927.393-1.761 1.025-2.347l-1.36-1.466A5.189 5.189 0 0 0 6.2 12.6h2zm1.025-2.347c.117-.109.242-.209.375-.3L8.473 8.303a5.22 5.22 0 0 0-.609.485l1.36 1.466zm-.726-.228C8.663 10.008 8.83 10 9 10V8a7.07 7.07 0 0 0-.699.035l.198 1.99zM4 15a5 5 0 0 1 4.499-4.975L8.3 8.035A7 7 0 0 0 2 15h2zm5 5a5 5 0 0 1-5-5H2a7 7 0 0 0 7 7v-2zm5-5a5 5 0 0 1-5 5v2a7 7 0 0 0 7-7h-2zM9.6 9.954A1.07 1.07 0 0 0 9 8v2a.93.93 0 1 1-.527-1.698L9.6 9.954zm6.098 5.573A.93.93 0 0 1 14 15h2a1.07 1.07 0 1 0-1.954-.6l1.652 1.127z" fill="#fff"/><path d="M19 7.5v4m-2-2h4M12 3v1.5m0 0V6m0-1.5h-1.5m1.5 0h1.5" stroke="#fff" stroke-width="2" stroke-linecap="round" stroke-linejoin="round"/></svg>
